packages/icons/src/components/Logo/assets/light/php.svg

<svg width="20" height="20" viewBox="0 0 20 20" fill="none" xmlns="http://www.w3.org/2000/svg">
<path d="M4.54874 7.11389C5.41932 7.1212 6.05016 7.3722 6.44129 7.86648C6.83241 8.36076 6.96146 9.03588 6.82865 9.89184C6.77707 10.283 6.66264 10.6666 6.48556 11.0429C6.31578 11.4192 6.07982 11.7585 5.77724 12.0611C5.40825 12.4447 5.01358 12.6882 4.59301 12.7915C4.17245 12.8949 3.73706 12.9465 3.28705 12.9465H1.95895L1.53838 15.0493H0L1.58265 7.11389H4.54874ZM17.6696 7.11389C18.5402 7.1212 19.171 7.3722 19.5621 7.86648C19.9532 8.36076 20.0823 9.03588 19.9495 9.89184C19.8979 10.283 19.7835 10.6666 19.6064 11.0429C19.4366 11.4192 19.2007 11.7585 18.8981 12.0611C18.5291 12.4447 18.1344 12.6882 17.7138 12.7915C17.2933 12.8949 16.8579 12.9465 16.4079 12.9465H15.0798L14.6592 15.0493H13.1208L14.7035 7.11389H17.6696ZM10.1084 5L9.67676 7.11389H11.0491C11.8017 7.12872 12.3624 7.28366 12.7314 7.57873C13.1077 7.87379 13.2184 8.43468 13.0634 9.26099L12.3219 12.9465H10.7724L11.4808 9.427C11.5545 9.05801 11.5323 8.79615 11.4144 8.64121C11.2964 8.48626 11.0418 8.40879 10.6507 8.40879L9.4222 8.39772L8.51467 12.9465H6.98735L8.58107 5H10.1084ZM3.35345 8.37559C3.26491 8.3829 3.18013 8.38666 3.0989 8.38666L2.87531 8.38664L2.2135 11.6958C2.25777 11.7031 2.30204 11.7069 2.34631 11.7069H2.50126C3.20958 11.7142 3.79991 11.6443 4.27206 11.4966C4.7442 11.3417 5.06161 10.8031 5.22386 9.88077C5.35667 9.10604 5.22386 8.65958 4.82543 8.5416C4.43431 8.42362 3.94379 8.36828 3.35345 8.37559ZM16.4743 8.37559C16.3857 8.3829 16.301 8.38666 16.2197 8.38666L15.9961 8.38664L15.3343 11.6958C15.3786 11.7031 15.4229 11.7069 15.4671 11.7069H15.6221C16.3304 11.7142 16.9207 11.6443 17.3929 11.4966C17.865 11.3417 18.1824 10.8031 18.3447 9.88077C18.4775 9.10604 18.3447 8.65958 17.9463 8.5416C17.5551 8.42362 17.0646 8.36828 16.4743 8.37559Z" fill="black"/>
</svg>

<svg xmlns="http://www.w3.org/2000/svg" width="20" height="20" fill="none" viewBox="0 0 20 20">
    <path fill="#000" d="M4.549 7.114q1.305.01 1.892.752.586.742.388 2.026a3.9 3.9 0 0 1-.343 1.15q-.255.565-.709 1.02-.553.574-1.184.73a5.5 5.5 0 0 1-1.306.155H1.959l-.42 2.102H0l1.583-7.935zm13.12 0q1.306.01 1.893.752t.387 2.026a3.9 3.9 0 0 1-.343 1.15q-.254.565-.708 1.02-.554.574-1.184.73a5.5 5.5 0 0 1-1.306.155H15.08l-.42 2.102h-1.54l1.584-7.935zM10.11 5l-.432 2.114h1.372q1.129.022 1.682.465.565.443.332 1.682l-.741 3.686h-1.55l.709-3.52q.11-.553-.067-.786t-.763-.232l-1.229-.011-.907 4.549H6.987L8.581 5zM3.352 8.376a3 3 0 0 1-.254.01h-.224l-.662 3.31a1 1 0 0 0 .133.01H2.5q1.063.012 1.771-.21.708-.232.952-1.615.2-1.162-.399-1.34-.585-.176-1.472-.165m13.121 0a3 3 0 0 1-.254.01h-.224l-.662 3.31a1 1 0 0 0 .133.01h.155q1.063.012 1.77-.21.709-.232.953-1.615.2-1.162-.399-1.34-.585-.176-1.472-.165"/>
</svg>
